X:28
T:Madam Judge
T:Mrs. Judge
T:Abigail Judge
R:carolan
C:Turlough O'Carolan (1670-1738)
H:Often played before Planxty Judge, #29.
H:O'Carolan composed these tunes to be played together
D:Ashplant
Z:id:hn-carolan-28
M:C|
L:1/8
K:Em
ED | B,2E2 E2G2 | FGFE D2B2 | BAGF AGFE | D4 B,2B,2 |
E2F2 G2A2 | BcBA G2e2 | efg2 B2g2 | f4 e2e2 |
edB2 B2e2 | dedB G2B2 | AGFG A2G2 | F4 E2D2 |
B2G2 c2A2 | d2B2 e2B2 | cBAG BAGF | E4 E2 :|
|: GA | B2B2 c2B2 | BAGF G2d2 | efg2 B2g2 | efg2 B2g2 |
fga2 d2a2 | gfge babg | dBde BABc | B4 B2g2 |
gfef g2f2 | e3f e2dc | B2cB A2G2 | G2F2 E2D2 |
EFGA B2e2 | DEFG A2d2 | BABG BAGF | E4 E2 :|
<end>
<start>
